svg/business/gift_card_fill.svg

<?xml version="1.0" encoding="UTF-8"?>
<svg width="24px" height="24px" viewBox="0 0 24 24" version="1.1" xmlns="http://www.w3.org/2000/svg" xmlns:xlink="http://www.w3.org/1999/xlink">
    <title>gift_card_fill</title>
    <g id="Icon" stroke="none" stroke-width="1" fill="none" fill-rule="evenodd">
        <g id="Business" transform="translate(-865.000000, -432.000000)" fill-rule="nonzero">
            <g id="gift_card_fill" transform="translate(865.000000, 432.000000)">
                <path d="M24,0 L24,24 L0,24 L0,0 L24,0 Z M12.5935,23.2578 L12.5819,23.2595 L12.5109,23.295 L12.4919,23.2987 L12.4767,23.295 L12.4057,23.2595 C12.3958,23.2564 12.387,23.259 12.3821,23.2649 L12.378,23.2758 L12.3609,23.7031 L12.3659,23.7235 L12.3769,23.7357 L12.4805,23.8097 L12.4953,23.8136 L12.5071,23.8097 L12.6107,23.7357 L12.6233,23.7197 L12.6267,23.7031 L12.6096,23.2758 C12.6076,23.2657 12.601,23.2593 12.5935,23.2578 Z M12.8584,23.1453 L12.8445,23.1473 L12.6598,23.2397 L12.6499,23.2499 L12.6472,23.2611 L12.6651,23.6906 L12.6699,23.7034 L12.6784,23.7105 L12.8793,23.8032 C12.8914,23.8069 12.9022,23.803 12.9078,23.7952 L12.9118,23.7812 L12.8777,23.1665 C12.8753,23.1546 12.8674,23.147 12.8584,23.1453 Z M12.143,23.1473 C12.1332,23.1424 12.1222,23.1453 12.1156,23.1526 L12.1099,23.1665 L12.0758,23.7812 C12.0751,23.7927 12.0828,23.8019 12.0926,23.8046 L12.1083,23.8032 L12.3092,23.7105 L12.3186,23.7024 L12.3225,23.6906 L12.3404,23.2611 L12.3372,23.2485 L12.3278,23.2397 L12.143,23.1473 Z" id="MingCute"></path>
                <path d="M19,4 C20.597725,4 21.903664,5.24892392 21.9949075,6.82372764 L22,7 L22,17 C22,18.597725 20.7511226,19.903664 19.1762773,19.9949075 L19,20 L5,20 C3.40232321,20 2.09633941,18.7511226 2.00509271,17.1762773 L2,17 L2,7 C2,5.40232321 3.24892392,4.09633941 4.82372764,4.00509271 L5,4 L19,4 Z M12.3539,8.9916 L12,9.60449 L11.6461,8.9916 C10.9282,7.74804 9.33804,7.32196 8.09448,8.03993 L7.50063,8.38279 C6.20241,9.13232 5.75761,10.7923 6.50713,12.0906 C7.16327,13.227 8.39578,13.8232 9.62224,13.7231 L8.65396,15.4002 C8.37781,15.8785 8.54169,16.4901 9.01998,16.7663 C9.49827,17.0424 10.1099,16.8785 10.386,16.4002 L12,13.6047 L13.614,16.4002 C13.8901,16.8785 14.5017,17.0424 14.98,16.7663 C15.4583,16.4901 15.6222,15.8785 15.346,15.4002 L14.3778,13.7231 C15.6042,13.8232 16.8367,13.227 17.4929,12.0906 C18.2424,10.7923 17.7976,9.13232 16.4994,8.38279 L15.9055,8.03993 C14.662,7.32196 13.0718,7.74804 12.3539,8.9916 Z M14.8172841,9.73012066 L14.9055,9.77198 L15.4994,10.1148 C15.841,10.3121 15.9581,10.7489 15.7608,11.0906 C15.4279875,11.6670688 14.7160148,11.8882836 14.1216563,11.6211726 L14.0045,11.5612 L13.386,11.2041 L14.0859,9.9916 C14.21846,9.762016 14.479788,9.6531744 14.7259608,9.70364928 L14.8172841,9.73012066 Z M9.91409,9.9916 L10.614,11.2041 L9.9955,11.5612 C9.38056,11.9162 8.59423,11.7055 8.23919,11.0906 C8.04194,10.7489 8.15899,10.3121 8.50063,10.1148 L9.09448,9.77198 C9.38145,9.6063 9.74841,9.70462 9.91409,9.9916 Z" id="形状" fill="#09244B"></path>
            </g>
        </g>
    </g>
</svg>

<svg xmlns="http://www.w3.org/2000/svg" width="24" height="24"><g fill="none" fill-rule="nonzero"><path d="M24 0v24H0V0zM12.594 23.258l-.012.002-.071.035-.02.004-.014-.004-.071-.036c-.01-.003-.019 0-.024.006l-.004.01-.017.428.005.02.01.013.104.074.015.004.012-.004.104-.074.012-.016.004-.017-.017-.427c-.002-.01-.009-.017-.016-.018m.264-.113-.014.002-.184.093-.01.01-.003.011.018.43.005.012.008.008.201.092c.012.004.023 0 .029-.008l.004-.014-.034-.614c-.003-.012-.01-.02-.02-.022m-.715.002a.023.023 0 0 0-.027.006l-.006.014-.034.614c0 .012.007.02.017.024l.015-.002.201-.093.01-.008.003-.011.018-.43-.003-.012-.01-.01z"/><path fill="#09244B" d="M19 4a3 3 0 0 1 2.995 2.824L22 7v10a3 3 0 0 1-2.824 2.995L19 20H5a3 3 0 0 1-2.995-2.824L2 17V7a3 3 0 0 1 2.824-2.995L5 4zm-6.646 4.992L12 9.604l-.354-.612a2.6 2.6 0 0 0-3.552-.952l-.593.343a2.714 2.714 0 0 0-.994 3.708 3.286 3.286 0 0 0 3.115 1.632L8.654 15.4a1 1 0 0 0 1.732 1L12 13.605l1.614 2.795a1 1 0 1 0 1.732-1l-.968-1.677a3.286 3.286 0 0 0 3.115-1.632 2.714 2.714 0 0 0-.994-3.708l-.593-.343a2.6 2.6 0 0 0-3.552.952m2.463.738.088.042.594.343a.714.714 0 0 1 .262.976 1.286 1.286 0 0 1-1.64.53l-.117-.06-.618-.357.7-1.212a.6.6 0 0 1 .64-.288zm-4.903.262.7 1.212-.619.357a1.286 1.286 0 0 1-1.756-.47.714.714 0 0 1 .262-.976l.593-.343a.6.6 0 0 1 .82.22"/></g></svg>
